X: 19087
T: Irish Girl, The
R: reel
M: 4/4
K: Dmajor
"G"B2BA B3d|BAGA Bcde|"D"fd d2 gfec|dBAF GE E2||
|:S"D"FGAF DEFD|"A"E>(A, {B,}(3A,G,A,) E>(A, {B,}(3A,G,A,)|"D"FGAF DEFA|1 "A"B2ec "D"dBAG:|2 "A"B2ec "D"d3e||
"D"fd{c}dc dfaf|"A"edcd efge|"D"fd{c}dc dfaf|"A"faeg "D"fd{c}d2|
"D"fd{c}dc dfaf|"A"edcd efge|"D"dfaf "A"egbg|"A"faeg "D.S.""D"fdAG||

